X: 12083
T: Ethan's
R: polka
M: 2/4
K: Gmajor
|:dG c/B/A/G/|FA D>G|FA Dc|Bd d/c/B/A/|
dG c/B/A/G/|FA D>G|FA cF|AG G2:|
K:D
|:FA A/B/A/G/|FA d>d|ce A>g|fa d2|
FA A/B/A/G/|FA d>d|ce a/g/f/e/|fd d2:|

